X:1
T:Title
%%score { ( 1 3 ) | ( 2 4 ) }
L:1/8
Q:1/4=120
M:3/4
K:D
V:1 treble nm="Grand Piano"
V:3 treble 
V:2 bass 
V:4 bass 
V:1
 F2 G2 F2 | D2 F2 B2 | A4 z2 | A4 z2 | A2 c2 B2 | A2 G2 E2 | [EG]6 | z2 A,2 z F | F2 G2 F2 | %9
w: R.~Frank~Lehman * *|||||||||
 D2 F2 B2 | A4 z2 | A4 z2 | A2 ^G2 F2 | E2 e2 c2 | B4 z2 | [CA]4 z2 | A2 c2 B2 | A2 B2 A2 | %18
w: |||||||||
 [FA]4 [EG]2 | [DF]4 DE | =F2 E2 D2 | =F2 E2 D2 | A6 | [EA]2 z2 A2 | A3 B cd | A4 A2 | A3 B cd | %27
w: |||||||||
 [DGB]4 z2 | A2 z2 z2 | [DA]2 [F,D]2 [B,EG]2 | [A,DF]4 [CE]2 |[M:5/8][K:bass] [F,D]3 z2 | %32
w: |||||
[M:1/4][K:treble] A2 |[M:3/4] [Gc]3 [GB] [FA]2 | [EG]2 [GB]2 [FA]2 | [FA]6 | z6 | %37
w: |||||
 [Gc]3 [Gd] [Ge]2 | A2 z2 z2 | [DFA]6 | [DF]2 z2 [FA]2 | [Fd]3 [Fc] [Fd]2 | [FA]2 [FB]2 [F=c]2 | %43
w: ||||||
 B6- | B2 z2 B2 | A3 B A2 | E2 z2 z2 | [A,DF]6- | [A,DF]2 z2 [DFA]2 | [Fd]3 [Fc] [Fd]2 | %50
w: |||||||
 [Af]2 [Ae]2 [Ad]2 | B6- | B2 z2 B2 | A3 [GB] [FA]2 |[M:4/4] G2 z2 z4 |[M:3/4] [A,DF]4 z2 |] %56
w: ||||||
V:2
 [D,,D,]2 [D,F,A,]2 [D,F,A,]2 | [D,,D,]2 [D,F,A,]2 [D,G,B,]2 | [D,,D,]2 [D,F,]2 [D,F,A,]2 | %3
 [D,,D,]2 [D,F,]2 [D,F,]2 | [A,,A,]2 [G,A,C]2 [G,A,C]2 | [A,,A,]2 [G,A,C]2 [G,A,C]2 | %6
 A,,2 B,,2 C,2 | [D,,D,]2 [D,F,]2 [D,F,]2 | [D,,D,]2 [D,F,A,]2 [D,F,A,]2 | %9
 [D,,D,]2 [D,F,A,]2 [D,G,B,]2 | [D,,D,]2 [D,F,]2 [D,F,A,]2 | [D,,D,]2 [D,F,]2 [D,F,]2 | %12
 [^D,,^D,]2 [D,A,=C]2 [D,A,C]2 | [E,,E,]2 [E,A,C]2 [E,A,C]2 | [E,,E,]2 [E,^G,]2 [E,G,D]2 | %15
 [A,,A,]4 z2 | [A,,A,]2 [G,A,C]2 [G,A,C]2 | [A,,A,]2 [G,A,C]2 [G,A,C]2 | A,,2 B,,2 C,2 | D,4 D,E, | %20
 =F,2 E,2 D,2 | =F,2 E,2 D,2 | E,4 z2 | [A,,G,]2 z2 [A,,A,]2 | [D,F,A,]4 [A,,A,]2 | %25
 [D,F,A,]4 [A,,A,]2 | [D,F,A,]4 [D,,D,]2 | G,,4[K:treble] B2 | z2 d2[K:bass] A,,2 | %29
 [A,,F,]2 B,,2 G,,2 | z2 z2 G,2 |[M:5/8] D,3 z2 |[M:1/4] A,2 |[M:3/4] [A,,A,]3 [A,,A,] [A,,A,]2 | %34
 [A,,A,]2 [A,,A,]2 [A,,A,]2 | z6 | D4 A,2 | [A,,A,]3 [A,,A,] [A,,A,]2 | %38
 z2[K:treble] B2[K:bass] A,,2 | D,6 | [D,A,]2 z2 [D,D]2 | [D,A,]3 [D,A,] [D,A,]2 | %42
 [D,D]2 [D,D]2 [D,D]2 | [G,DG]6- | [G,DG]2 z2 [G,DG]2 | [A,DF]3 [A,DG] [A,DF]2 | z2 C2 A,,2 | %47
 D,6- | D,2 z2 D,2 | [D,A,]3 [D,A,] [D,A,]2 | [D,D]2 [E,C]2 [F,D]2 | [G,DG]6- | %52
 [G,DG]2 z2 [^G,D=F]2 | [A,DF]3[K:bass] [A,,A,] [A,,A,]2 |[M:4/4] z2 E2- E A,,3 |[M:3/4] D,4 z2 |] %56
V:3
 x6 | x6 | z2 A,2 F2 | z2 A,2 A,2 | x6 | x6 | x6 | [DF]4 A,2 | x6 | x6 | z2 A,2 F2 | z2 A,2 A,2 | %12
 x6 | x6 | z2 D2 E2 | x6 | x6 | x6 | x6 | x6 | x6 | x6 | C4 [F,D]2 | x6 | x6 | x6 | x6 | x6 | %28
 D4 [A,DF]2 | x6 | x6 |[M:5/8][K:bass] x5 |[M:1/4][K:treble] x2 |[M:3/4] x6 | x6 | A,6- | %36
 [A,F]4 A2 | x6 | G4 [CGA]2 | x6 | x6 | x6 | x6 | x6 | x6 | x6 | [A,G]4 [A,CA]2 | x6 | x6 | x6 | %50
 x6 | x6 | x6 | x6 |[M:4/4] C4- C [A,CA]3 |[M:3/4] x6 |] %56
V:4
 x6 | x6 | x6 | x6 | x6 | x6 | x6 | x6 | x6 | x6 | x6 | x6 | x6 | x6 | x6 | x6 | x6 | x6 | x6 | %19
 x6 | x6 | x6 | A,,6 | x6 | x6 | x6 | x6 | x4[K:treble] x2 | [A,,F,]4[K:bass] z2 | x6 | A,,6 | %31
[M:5/8] x5 |[M:1/4] x2 |[M:3/4] x6 | x6 | D,6- | D,4 z2 | x6 | [A,,A,]4[K:treble][K:bass] z2 | x6 | %40
 x6 | x6 | x6 | x6 | x6 | x6 | A,,4 z2 | x6 | x6 | x6 | x6 | x6 | x6 | x3[K:bass] x3 | %54
[M:4/4] [A,,A,]6 z2 |[M:3/4] x6 |] %56

